public/icons/dark/turbopack.darkmode.svg

<svg width="192" height="192" viewBox="0 0 192 192" fill="none" xmlns="http://www.w3.org/2000/svg">
<path d="M18.5 36.42C18.5 26.52 26.52 18.5 36.42 18.5H155.58C165.48 18.5 173.5 26.52 173.5 36.42V155.58C173.5 165.48 165.48 173.5 155.58 173.5H36.42C26.52 173.5 18.5 165.48 18.5 155.58V36.42Z" fill="white"/>
<path d="M18.5 36.42C18.5 26.52 26.52 18.5 36.42 18.5H155.58C165.48 18.5 173.5 26.52 173.5 36.42V155.58C173.5 165.48 165.48 173.5 155.58 173.5H36.42C26.52 173.5 18.5 165.48 18.5 155.58V36.42Z" fill="url(#paint0_linear_468_2304)" fill-opacity="0.15"/>
<path d="M18.5 36.42C18.5 26.52 26.52 18.5 36.42 18.5H155.58C165.48 18.5 173.5 26.52 173.5 36.42V155.58C173.5 165.48 165.48 173.5 155.58 173.5H36.42C26.52 173.5 18.5 165.48 18.5 155.58V36.42Z" fill="white"/>
<path d="M36.42 19.25H155.58C165.06 19.25 172.75 26.94 172.75 36.42V155.58C172.75 165.06 165.06 172.75 155.58 172.75H36.42C26.93 172.75 19.25 165.06 19.25 155.58V36.42C19.25 26.93 26.94 19.25 36.42 19.25Z" stroke="url(#paint1_radial_468_2304)" stroke-opacity="0.15" stroke-width="1.49"/>
<path fill-rule="evenodd" clip-rule="evenodd" d="M85.1902 83.6999C84.3702 83.6999 83.7001 84.3699 83.7001 85.1899V105.95C83.7001 106.77 84.3702 107.44 85.1902 107.44H105.95C106.77 107.44 107.44 106.77 107.44 105.95V85.1899C107.44 84.3699 106.77 83.6999 105.95 83.6999H85.1902ZM75.2802 73.9199C74.5202 73.9199 73.9102 74.5299 73.9102 75.2899V115.86C73.9102 116.62 74.5202 117.23 75.2802 117.23H115.85C116.61 117.23 117.22 116.62 117.22 115.86V75.2899C117.22 74.5299 116.61 73.9199 115.85 73.9199H75.2802Z" fill="white"/>
<path fill-rule="evenodd" clip-rule="evenodd" d="M60.4805 121.71V96.3205H70.9305V117.23C70.9305 117.45 70.9505 117.67 71.0005 117.88L62.0705 126.81C61.0605 125.36 60.4805 123.6 60.4805 121.71ZM64.1605 128.95C65.6405 130.03 67.4705 130.67 69.4405 130.67H94.8305V120.22H73.9205C73.6105 120.22 73.3105 120.17 73.0305 120.09L64.1605 128.96V128.95ZM97.8105 120.22V130.67H121.71C126.66 130.67 130.67 126.66 130.67 121.71V69.4405C130.67 64.4905 126.66 60.4805 121.71 60.4805H96.3205V70.9305H117.23C118.88 70.9305 120.22 72.2705 120.22 73.9205V117.23C120.22 118.88 118.88 120.22 117.23 120.22H97.8205H97.8105Z" fill="url(#paint2_linear_468_2304)"/>
<defs>
<linearGradient id="paint0_linear_468_2304" x1="18.5" y1="18.5" x2="173.5" y2="173.5" gradientUnits="userSpaceOnUse">
<stop stop-color="#3286F1"/>
<stop offset="1" stop-color="#C43AC4"/>
</linearGradient>
<radialGradient id="paint1_radial_468_2304" cx="0" cy="0" r="1" gradientUnits="userSpaceOnUse" gradientTransform="translate(23.0493 20.7423) rotate(45) scale(281.178)">
<stop stop-opacity="0"/>
<stop offset="1" stop-color="white"/>
</radialGradient>
<linearGradient id="paint2_linear_468_2304" x1="119.98" y1="86.5105" x2="85.4305" y2="120.82" gradientUnits="userSpaceOnUse">
<stop stop-color="#0096FF"/>
<stop offset="1" stop-color="#FF1E56"/>
</linearGradient>
</defs>
</svg>

<?xml version="1.0" encoding="UTF-8"?><svg id="icons" xmlns="http://www.w3.org/2000/svg" xmlns:xlink="http://www.w3.org/1999/xlink" viewBox="0 0 192 192"><defs><style>.cls-1{stroke:url(#Degradado_sin_nombre_41);stroke-opacity:.15;}.cls-1,.cls-2{fill:none;stroke-width:1.49px;}.cls-2{stroke:url(#Degradado_sin_nombre_19);stroke-opacity:.5;}.cls-3{fill:url(#Degradado_sin_nombre_40);}.cls-3,.cls-4{fill-rule:evenodd;}.cls-5{fill:url(#Degradado_sin_nombre_42);fill-opacity:.15;}.cls-4{fill:#fff;}</style><linearGradient id="Degradado_sin_nombre_42" x1="18.5" y1="-1539.31" x2="173.5" y2="-1694.31" gradientTransform="translate(0 -1520.81) scale(1 -1)" gradientUnits="userSpaceOnUse"><stop offset="0" stop-color="#3286f1"/><stop offset="1" stop-color="#c43ac4"/></linearGradient><radialGradient id="Degradado_sin_nombre_41" cx="-1793.1" cy="-373.93" fx="-1793.1" fy="-373.93" r="1.49" gradientTransform="translate(289187.46 189392.12) rotate(45) scale(188.71 -188.71)" gradientUnits="userSpaceOnUse"><stop offset="0" stop-color="#fff"/><stop offset="1" stop-color="#fff"/></radialGradient><linearGradient id="Degradado_sin_nombre_19" x1="-46.2" y1="-1574.15" x2="50.67" y2="-1603.21" gradientTransform="translate(0 -1520.81) scale(1 -1)" gradientUnits="userSpaceOnUse"><stop offset="0" stop-color="#fff"/><stop offset="1" stop-color="#fff" stop-opacity="0"/></linearGradient><linearGradient id="Degradado_sin_nombre_40" x1="119.98" y1="-1607.32" x2="85.43" y2="-1641.63" gradientTransform="translate(0 -1520.81) scale(1 -1)" gradientUnits="userSpaceOnUse"><stop offset="0" stop-color="#0096ff"/><stop offset="1" stop-color="#ff1e56"/></linearGradient></defs><path d="M18.5,36.42c0-9.9,8.02-17.92,17.92-17.92h119.16c9.9,0,17.92,8.02,17.92,17.92v119.16c0,9.9-8.02,17.92-17.92,17.92H36.42c-9.9,0-17.92-8.02-17.92-17.92V36.42Z"/><path class="cls-5" d="M18.5,36.42c0-9.9,8.02-17.92,17.92-17.92h119.16c9.9,0,17.92,8.02,17.92,17.92v119.16c0,9.9-8.02,17.92-17.92,17.92H36.42c-9.9,0-17.92-8.02-17.92-17.92V36.42Z"/><path d="M18.5,36.42c0-9.9,8.02-17.92,17.92-17.92h119.16c9.9,0,17.92,8.02,17.92,17.92v119.16c0,9.9-8.02,17.92-17.92,17.92H36.42c-9.9,0-17.92-8.02-17.92-17.92V36.42Z"/><path class="cls-1" d="M36.42,19.25h119.16c9.48,0,17.17,7.69,17.17,17.17v119.16c0,9.48-7.69,17.17-17.17,17.17H36.42c-9.49,0-17.17-7.69-17.17-17.17V36.42c0-9.49,7.69-17.17,17.17-17.17Z"/><path class="cls-2" d="M36.42,19.25h119.16c9.48,0,17.17,7.69,17.17,17.17v119.16c0,9.48-7.69,17.17-17.17,17.17H36.42c-9.49,0-17.17-7.69-17.17-17.17V36.42c0-9.49,7.69-17.17,17.17-17.17Z"/><path class="cls-4" d="M85.19,83.7c-.82,0-1.49,.67-1.49,1.49v20.76c0,.82,.67,1.49,1.49,1.49h20.76c.82,0,1.49-.67,1.49-1.49v-20.76c0-.82-.67-1.49-1.49-1.49h-20.76Zm-9.91-9.78c-.76,0-1.37,.61-1.37,1.37v40.57c0,.76,.61,1.37,1.37,1.37h40.57c.76,0,1.37-.61,1.37-1.37v-40.57c0-.76-.61-1.37-1.37-1.37h-40.57Z"/><path class="cls-3" d="M60.48,121.71v-25.39h10.45v20.91c0,.22,.02,.44,.07,.65l-8.93,8.93c-1.01-1.45-1.59-3.21-1.59-5.1Zm3.68,7.24c1.48,1.08,3.31,1.72,5.28,1.72h25.39v-10.45h-20.91c-.31,0-.61-.05-.89-.13l-8.87,8.87Zm33.65-8.73v10.45h23.9c4.95,0,8.96-4.01,8.96-8.96v-52.27c0-4.95-4.01-8.96-8.96-8.96h-25.39v10.45h20.91c1.65,0,2.99,1.34,2.99,2.99v43.31c0,1.65-1.34,2.99-2.99,2.99h-19.41Z"/></svg>
